X:547
T: Huangyang biandan
N: C0234
O: China,Sichuan, Xiushan
S: II, 255 (2)  und Textkopie]
N: ]
R: Xiaodiao, Huadeng Xiaodiao]
M: 2/4
L: 1/16
K: D
FAF2A2FA | F2A2A2FA |
B4BAFA | F8 |
B2BccBA2 | B2c2cBA2 |
F2F2EDB,2 | E2FAF2ED | EDB,DB,4 |
F2F2EDB,2 | E2FAF2ED | EDB,DB,4

